packages/tokens/icons/translate/size24Px.svg

<svg viewBox="0 0 24 24" fill="none" xmlns="http://www.w3.org/2000/svg" width="1em" height="1em"><path d="M15.5 11.5L19.5 11.5C20.6046 11.5 21.5 12.3954 21.5 13.5V19.5C21.5 20.6046 20.6046 21.5 19.5 21.5H13.5C12.3954 21.5 11.5 20.6046 11.5 19.5L11.5 16" stroke="currentColor" stroke-linecap="round"/><path d="M18.5 14.5C18 16.5 16 19.5 13.5 19.5" stroke="currentColor" stroke-linecap="round" stroke-linejoin="round"/><path d="M14.5 14.5C15 16.5 17 19.5 19.5 19.5" stroke="currentColor" stroke-linecap="round" stroke-linejoin="round"/><path d="M13.5 14.5L19.5 14.5" stroke="currentColor" stroke-linecap="round" stroke-linejoin="round"/><path d="M16.5 13.5V14.4998" stroke="currentColor" stroke-linecap="round" stroke-linejoin="round"/><path d="M16.5 4.5H18.5C19.6046 4.5 20.5 5.39543 20.5 6.5V8.5" stroke="currentColor" stroke-linecap="round"/><path d="M8.90906 19.8184H6.54542C5.44085 19.8184 4.54542 18.9229 4.54542 17.8184L4.54542 15.4547" stroke="currentColor" stroke-linecap="round"/><rect x="2.5" y="2.5" width="10" height="10" rx="1.5" stroke="currentColor"/><path d="M5.5 8.5H9.5" stroke="currentColor"/><path d="M5 10L7.5 5L10 10" stroke="currentColor" stroke-linecap="round" stroke-linejoin="round"/></svg>

<svg xmlns="http://www.w3.org/2000/svg" fill="none" viewBox="0 0 24 24" width="1em" height="1em"><path stroke="currentColor" stroke-linecap="round" d="M15.5 11.5h4a2 2 0 0 1 2 2v6a2 2 0 0 1-2 2h-6a2 2 0 0 1-2-2V16"/><path stroke="currentColor" stroke-linecap="round" stroke-linejoin="round" d="M18.5 14.5c-.5 2-2.5 5-5 5"/><path stroke="currentColor" stroke-linecap="round" stroke-linejoin="round" d="M14.5 14.5c.5 2 2.5 5 5 5m-6-5h6m-3-1v1"/><path stroke="currentColor" stroke-linecap="round" d="M16.5 4.5h2a2 2 0 0 1 2 2v2M8.91 19.818H6.544a2 2 0 0 1-2-2v-2.363"/><rect width="10" height="10" x="2.5" y="2.5" stroke="currentColor" rx="1.5"/><path stroke="currentColor" d="M5.5 8.5h4"/><path stroke="currentColor" stroke-linecap="round" stroke-linejoin="round" d="m5 10 2.5-5 2.5 5"/></svg>
